X: 41
T: Affeyle Günâhım
C: Ali Bey (Enderûnî)
O: Turkey
F: http://compmusic.upf.edu/node/140
N: ussak--sarki--yuruksemai--affeyle_guhanim--enderuni_ali_bey
N: makam= ussak
N: form= sarki
N: usul= yuruksemai = 6/8
M: 6/8
L: 1/16
K: C _2/4B   
Q: 1/4=60
%%MIDI tuningsystem comma53
e2fga2gf efgagfeg f8  | efefg2ag gffeeddc d8  | 
w:  ARANAĞME  |   | 
c3de2f2 g2a2gfed c2dc_3/4BAG2  | A3Gf3/2e/de c3BcBBA A8  | 
w:   |   | 
e2fga2gf efgagfeg f8  | efefg2ag gffeeddc d8  | 
w:  ARANAĞME  |   | 
c3de2f2 g2a2gfed c2dc_3/4BAG2  | A3Gf3/2e/de c3BcBBA A8  | 
w:   |   | 
G4G4 A4A4 A6G2  | d2cde3d c3BcBBA A8  | \
w:  Af fey le  gü nâ  |  hım  *  *  *  *  n'o *  lur_ *  *  *  ey   | 
G8 fefge2d2 d2c2d2ed  | 
w:  şûh  *  *  *  *  pe *  sen  | 
d8 dcBAGABc d8  | fefge3d c2d2e2fg a2gfe3d  | 
w:  dim   SAZ  |  Kıy *  *  *  *  *  dım  *  *  *  *  se *  *  nin   | 
d3cd2ed dc2dcBBA A6G2  | f6fe _1/4e3dg^f_3/4ed c3BcBBA  | 
w:  aş *  kın  *  *  i *  *  le  *  *  *  ben   |  ken *  *  *  *  di *  me  *  ken  | 
A8 dcBAGABc d8  | fefge3d c2d2e2fg a2gfe3d  | 
w:  dim   SAZ  |  Kıy *  *  *  *  *  dım  *  *  *  *  se *  *  nin   | 
d3cd2ed dc2dcBBA A6G2  | f6fe _1/4e3dg^f_3/4ed c3BcBBA  | 
w:  aş *  kın  *  *  i *  *  le  *  *  *  ben   |  ken *  *  *  *  di *  me  *  ken  | 
A8 abag^fefg a8  | a3gg3^f f3_7/8efeed d8  | 
w:  dim   SAZ  |  Ağ *  yâ *  re  *  ve *  *  *  fâ   | 
fefge3d d3cd2ed d2c2B2A2  | G4(3B2c2B2 (3c2d2c2d4 _7/8edc_1/4B^f2ed  | 
w:  ben *  *  *  *  *  de *  ne  *  *  bu   |  *  cev *  *  ri  *  *  be ğen  | 
d8 abag^3/4fefg a8  | a3gg3^f f3_7/8efeed d8  | 
w:  dim   SAZ  |  Ağ *  yâ *  re  *  ve *  *  *  fâ   | 
fefge3d d3cd2ed d2c2B2A2  | G4(3B2c2B2 (3c2d2c2d4 _7/8edc_1/4B^f2ed  | 
w:  ben *  *  *  *  *  de *  ne  *  *  bu   |  *  cev *  *  ri  *  *  be ğen  | 
d8 dcBAGABc d8  | fefge3d c2d2e2fg a2gfe3d  | 
w:  dim   SAZ  |  Kıy *  *  *  *  *  dım  *  *  *  *  se *  *  nin   | 
d3cd2ed dc2dcBBA A6G2  | f6fe _1/4e3dg^f_3/4ed c3BcBBA  | 
w:  aş *  kın  *  *  i *  *  le  *  *  *  ben   |  ken *  *  *  *  di *  me  *  ken  | 
A8 dcBAGABc d8  | fefge3d c2d2e2fg a2gfe3d  | 
w:  dim   SAZ  |  Kıy *  *  *  *  *  dım  *  *  *  *  se *  *  nin   | 
d3cd2ed dc2dcBBA A6G2  | f6fe _1/4e3dg^f_3/4ed c3BcBBA  | 
w:  aş *  kın  *  *  i *  *  le  *  *  *  ben   |  ken *  *  *  *  di *  me  *  ken  | 
A4f3/2e/de c3BcBBA A8  | |


